;FLAVOR:Marlin
;TIME:16138
;Filament used: 12.1032m
;Layer height: 0.2
;MINX:60.3
;MINY:76.3
;MINZ:0.25
;MAXX:174.7
;MAXY:158.7
;MAXZ:29.85
;Generated with Cura_SteamEngine 4.8.0
M140 S60
M105
M190 S60
M104 S205
M105
M109 S205
M82 ;absolute extrusion mode
; Script based on an original created by tjjfvi (https://github.com/tjjfvi)
; An up-to-date version of the tjjfvi's original script can be found
; here:  https://csi.t6.fyi/
; Note - This script will only work in Cura V4.2 and above!
; --- Global Settings
; layer_height = 0.2
; smooth_spiralized_contours = True
; magic_mesh_surface_mode = normal
; machine_extruder_count = 1
; --- Single Extruder Settings
; speed_z_hop = 10
; retraction_amount = 5
; retraction_hop = 0.25
; retraction_hop_enabled = False
; retraction_enable = True
; retraction_speed = 45
; retraction_retract_speed = 45
; retraction_prime_speed = 45
; speed_travel = 70

G28 ;home
G92 E0 ;Reset Extruder
G1 Z4.0 F3000 ;Move Z Axis up
G92 E0 ;Reset Extruder
G1 X1.1 Y20 Z0.28 F5000.0 ;Move to start position
G1 X1.1 Y80.0 Z0.28 F1500.0 E10 ;Draw the first line
G1 X1.4 Y80.0 Z0.28 F5000.0 ;Move to side a little
G1 X1.4 Y20 Z0.28 F1500.0 E20 ;Draw the second line
G92 E0 ;Reset Extruder
G1 Z2.0 F3000 ;Move Z Axis up
G92 E0
G92 E0
G1 F2700 E-5
;LAYER_COUNT:149
;LAYER:0
M107
G0 F2100 X63.224 Y77.727 Z0.25
;TYPE:SKIRT
G1 F2700 E0
G1 F1500 X63.689 Y77.425 E0.02305
G1 X64.109 Y77.17 E0.04348
G1 X64.666 Y76.902 E0.06918
G1 X65.166 Y76.719 E0.09131
G1 X66.005 Y76.468 E0.12772
G1 X66.591 Y76.369 E0.15243
G1 X67.137 Y76.322 E0.17522
G1 X67.471 Y76.309 E0.18911
G1 X68.117 Y76.3 E0.21597
G1 X166.845 Y76.3 E4.32061
G1 X167.543 Y76.31 E4.34963
G1 X168.25 Y76.368 E4.37912
G1 X168.795 Y76.436 E4.40195
G1 X169.396 Y76.567 E4.42753
G1 X170.169 Y76.832 E4.4615
G1 X170.673 Y77.068 E4.48464
G1 X171.445 Y77.491 E4.52124
G1 X171.884 Y77.804 E4.54365
G1 X172.283 Y78.146 E4.5655
G1 X172.907 Y78.772 E4.60225
G1 X173.257 Y79.201 E4.62527
G1 X173.564 Y79.672 E4.64864
G1 X173.823 Y80.095 E4.66926
G1 X174.099 Y80.666 E4.69563
G1 X174.278 Y81.159 E4.71744
G1 X174.532 Y82.005 E4.75416
G1 X174.629 Y82.575 E4.7782
G1 X174.678 Y83.134 E4.80153
G1 X174.691 Y83.467 E4.81538
G1 X174.7 Y84.117 E4.84241
G1 X174.7 Y150.845 E7.61664
G1 X174.69 Y151.543 E7.64566
G1 X174.633 Y152.239 E7.67469
G1 X174.566 Y152.784 E7.69752
G1 X174.433 Y153.395 E7.72352
G1 X174.165 Y154.174 E7.75777
G1 X173.932 Y154.673 E7.78067
G1 X173.505 Y155.45 E7.81753
G1 X173.194 Y155.886 E7.83979
G1 X172.847 Y156.29 E7.86193
G1 X172.223 Y156.91 E7.8985
G1 X171.819 Y157.243 E7.92027
G1 X171.39 Y157.526 E7.94164
G1 X170.905 Y157.824 E7.9653
G1 X170.34 Y158.097 E7.99139
G1 X169.837 Y158.28 E8.01365
G1 X169.004 Y158.529 E8.04979
G1 X168.409 Y158.631 E8.07489
G1 X167.863 Y158.678 E8.09767
G1 X167.529 Y158.691 E8.11157
G1 X166.883 Y158.7 E8.13843
G1 X68.155 Y158.7 E12.24306
G1 X67.457 Y158.69 E12.27209
G1 X66.75 Y158.632 E12.30158
G1 X66.205 Y158.564 E12.32441
G1 X65.604 Y158.433 E12.34999
G1 X64.831 Y158.168 E12.38396
G1 X64.324 Y157.93 E12.40725
G1 X63.556 Y157.509 E12.44366
G1 X63.102 Y157.185 E12.46685
G1 X62.715 Y156.852 E12.48807
G1 X62.086 Y156.219 E12.52517
G1 X61.705 Y155.742 E12.55055
G1 X61.426 Y155.312 E12.57187
G1 X61.173 Y154.897 E12.59207
G1 X60.901 Y154.333 E12.61811
G1 X60.72 Y153.837 E12.64006
G1 X60.455 Y152.927 E12.67946
G1 X60.357 Y152.25 E12.7079
G1 X60.313 Y151.546 E12.73723
G1 X60.301 Y151.079 E12.75665
G1 X60.3 Y84.155 E15.53903
G1 X60.31 Y83.455 E15.56813
G1 X60.369 Y82.74 E15.59796
G1 X60.435 Y82.208 E15.62025
G1 X60.569 Y81.595 E15.64633
G1 X60.836 Y80.823 E15.6803
G1 X61.065 Y80.333 E15.70278
G1 X61.328 Y79.818 E15.72682
G1 X61.627 Y79.358 E15.74963
G1 X62.038 Y78.834 E15.77732
G1 X62.429 Y78.427 E15.80078
G1 X62.791 Y78.078 E15.82169
G1 X63.224 Y77.727 E15.84486
G1 F2700 E10.84486
;MESH:Enclosure_Bottom.stl
G0 F2100 X140.22 Y117.991
G0 X138.401 Y118.378
G0 X139.944 Y119.81
G0 X141.875 Y121.451
;TYPE:WALL-INNER
G1 F2700 E15.84486
G1 F1200 X142.408 Y121.499 E15.86711
G1 X142.941 Y121.475 E15.8893
G1 X143.467 Y121.381 E15.91151
G1 X143.976 Y121.219 E15.93372
G1 X144.458 Y120.989 E15.95592
G1 X144.907 Y120.695 E15.97824
G1 X145.334 Y120.326 E16.0017
G1 X145.931 Y119.564 E16.04194
G1 X146.199 Y119.024 E16.06701
G1 X146.369 Y118.518 E16.0892
G1 X146.47 Y117.992 E16.11147
G1 X146.5 Y117.459 E16.13366
G1 X146.459 Y116.927 E16.15585
G1 X146.348 Y116.403 E16.17811
G1 X146.167 Y115.901 E16.2003
G1 X145.907 Y115.399 E16.2238
G1 X145.305 Y114.641 E16.26405
G1 X144.841 Y114.255 E16.28914
G1 X144.386 Y113.971 E16.31144
G1 X143.897 Y113.751 E16.33373
G1 X143.386 Y113.6 E16.35589
G1 X142.859 Y113.516 E16.37807
G1 X142.324 Y113.505 E16.40032
G1 X141.795 Y113.562 E16.42244
G1 X141.275 Y113.691 E16.44472
G1 X140.78 Y113.889 E16.46688
G1 X140.313 Y114.149 E16.4891
G1 X139.886 Y114.473 E16.51139
G1 X139.506 Y114.847 E16.53355
G1 X139.179 Y115.269 E16.55575
G1 X138.91 Y115.733 E16.57805
G1 X138.708 Y116.228 E16.60028
G1 X138.571 Y116.743 E16.62243
G1 X138.507 Y117.274 E16.64467
G1 X138.511 Y117.806 E16.66679
G1 X138.588 Y118.338 E16.68913
G1 X138.735 Y118.852 E16.71136
G1 X138.948 Y119.342 E16.73357
G1 X139.226 Y119.797 E16.75574
G1 X139.56 Y120.214 E16.77795
G1 X139.948 Y120.581 E16.80016
G1 X140.383 Y120.894 E16.82244
G1 X140.854 Y121.147 E16.84467
G1 X141.354 Y121.332 E16.86683
G1 X141.875 Y121.451 E16.88905
G0 F2100 X141.938 Y121.055
G1 F1200 X142.417 Y121.098 E16.90905
G1 X142.897 Y121.077 E16.92902
G1 X143.37 Y120.992 E16.949
G1 X143.828 Y120.846 E16.96899
G1 X144.262 Y120.639 E16.98898
G1 X144.666 Y120.375 E17.00904
G1 X145.043 Y120.049 E17.02976
G1 X145.591 Y119.35 E17.06669
G1 X145.828 Y118.871 E17.08891
G1 X145.981 Y118.416 E17.10887
G1 X146.072 Y117.943 E17.12889
G1 X146.099 Y117.463 E17.14888
G1 X146.062 Y116.984 E17.16885
G1 X145.962 Y116.513 E17.18887
G1 X145.8 Y116.061 E17.20883
G1 X145.57 Y115.618 E17.22959
G1 X145.017 Y114.922 E17.26654
G1 X144.606 Y114.58 E17.28877
G1 X144.197 Y114.325 E17.30881
G1 X143.758 Y114.127 E17.32883
G1 X143.297 Y113.991 E17.34882
G1 X142.823 Y113.915 E17.36878
G1 X142.342 Y113.905 E17.38878
G1 X141.865 Y113.957 E17.40873
G1 X141.398 Y114.073 E17.42873
G1 X140.952 Y114.251 E17.4487
G1 X140.532 Y114.485 E17.46869
G1 X140.148 Y114.776 E17.48872
G1 X139.806 Y115.113 E17.50868
G1 X139.512 Y115.493 E17.52865
G1 X139.27 Y115.91 E17.5487
G1 X139.088 Y116.355 E17.56869
G1 X138.965 Y116.819 E17.58864
G1 X138.907 Y117.297 E17.60866
G1 X138.911 Y117.776 E17.62858
G1 X138.98 Y118.254 E17.64866
G1 X139.112 Y118.717 E17.66867
G1 X139.304 Y119.157 E17.68863
G1 X139.554 Y119.567 E17.7086
G1 X139.855 Y119.942 E17.72859
G1 X140.204 Y120.272 E17.74856
G1 X140.595 Y120.554 E17.7686
G1 X141.019 Y120.781 E17.7886
G1 X141.469 Y120.948 E17.80855
G1 X141.938 Y121.055 E17.82855
G0 F2100 X142.001 Y120.659
;TYPE:WALL-OUTER
G1 F1200 X142.426 Y120.697 E17.84629
G1 X142.853 Y120.679 E17.86406
G1 X143.273 Y120.603 E17.8818
G1 X143.68 Y120.473 E17.89957
G1 X144.066 Y120.289 E17.91735
G1 X144.425 Y120.055 E17.93516
G1 X144.752 Y119.772 E17.95314
G1 X145.251 Y119.136 E17.98675
G1 X145.457 Y118.718 E18.00612
G1 X145.593 Y118.314 E18.02385
G1 X145.674 Y117.894 E18.04163
G1 X145.698 Y117.467 E18.05941
G1 X145.665 Y117.041 E18.07717
G1 X145.576 Y116.623 E18.09494
G1 X145.432 Y116.221 E18.1127
G1 X145.233 Y115.836 E18.13071
G1 X144.73 Y115.203 E18.16433
G1 X144.371 Y114.905 E18.18373
G1 X144.008 Y114.679 E18.2015
G1 X143.618 Y114.503 E18.21929
G1 X143.208 Y114.382 E18.23707
G1 X142.787 Y114.314 E18.2548
G1 X142.36 Y114.305 E18.27255
G1 X141.936 Y114.352 E18.29029
G1 X141.521 Y114.455 E18.30806
G1 X141.124 Y114.613 E18.32583
G1 X140.751 Y114.821 E18.34358
G1 X140.41 Y115.079 E18.36136
G1 X140.106 Y115.379 E18.37912
G1 X139.845 Y115.717 E18.39687
G1 X139.63 Y116.087 E18.41467
G1 X139.468 Y116.482 E18.43241
G1 X139.359 Y116.895 E18.45017
G1 X139.307 Y117.32 E18.46797
G1 X139.311 Y117.746 E18.48569
G1 X139.372 Y118.17 E18.5035
G1 X139.489 Y118.581 E18.52126
G1 X139.66 Y118.972 E18.539
G1 X139.882 Y119.337 E18.55677
G1 X140.15 Y119.67 E18.57454
G1 X140.46 Y119.963 E18.59227
G1 X140.807 Y120.214 E18.61008
G1 X141.184 Y120.415 E18.62784
G1 X141.584 Y120.564 E18.64559
G1 X142.001 Y120.659 E18.66337
G0 F2100 X142.2 Y120.676
G0 X142.16 Y121.114
G1 F2700 E13.66337
G0 F2100 X139.826 Y120.728
G0 X141.013 Y119.298
G0 X94.124 Y119.173
G0 X95.473 Y120.459
G0 X93.467 Y121.381
;TYPE:WALL-INNER
G1 F2700 E18.66337
G1 F1200 X93.976 Y121.219 E18.68557
G1 X94.458 Y120.989 E18.70778
G1 X94.907 Y120.695 E18.73009
G1 X95.334 Y120.326 E18.75355
G1 X95.931 Y119.564 E18.7938
G1 X96.199 Y119.024 E18.81886
G1 X96.369 Y118.518 E18.84106
G1 X96.47 Y117.992 E18.86332
G1 X96.5 Y117.459 E18.88552
G1 X96.459 Y116.927 E18.9077
G1 X96.348 Y116.403 E18.92997
G1 X96.167 Y115.901 E18.95216
G1 X95.907 Y115.399 E18.97566
G1 X95.305 Y114.641 E19.0159
G1 X94.841 Y114.255 E19.041
G1 X94.386 Y113.971 E19.0633
G1 X93.897 Y113.751 E19.08559
G1 X93.386 Y113.6 E19.10774
G1 X92.859 Y113.516 E19.12993
G1 X92.324 Y113.505 E19.15218
G1 X91.795 Y113.562 E19.1743
G1 X91.275 Y113.691 E19.19657
G1 X90.78 Y113.889 E19.21874
G1 X90.313 Y114.149 E19.24096
G1 X89.886 Y114.473 E19.26324
G1 X89.506 Y114.847 E19.28541
G1 X89.179 Y115.269 E19.30761
G1 X88.91 Y115.733 E19.3299
G1 X88.708 Y116.228 E19.35213
G1 X88.571 Y116.743 E19.37429
G1 X88.507 Y117.274 E19.39652
G1 X88.511 Y117.806 E19.41864
G1 X88.588 Y118.338 E19.44099
G1 X88.735 Y118.852 E19.46322
G1 X88.948 Y119.342 E19.48543
G1 X89.226 Y119.797 E19.5076
G1 X89.56 Y120.214 E19.52981
G1 X89.948 Y120.581 E19.55201
G1 X90.383 Y120.894 E19.57429
G1 X90.854 Y121.147 E19.59652
G1 X91.354 Y121.332 E19.61869
G1 X91.875 Y121.451 E19.64091
G1 X92.408 Y121.499 E19.66316
G1 X92.941 Y121.475 E19.68534
G1 X93.467 Y121.381 E19.70755
G0 F2100 X93.37 Y120.992
G1 F1200 X93.828 Y120.846 E19.72754
G1 X94.262 Y120.639 E19.74753
G1 X94.666 Y120.375 E19.76759
G1 X95.043 Y120.049 E19.78831
G1 X95.591 Y119.35 E19.82524
G1 X95.828 Y118.871 E19.84746
G1 X95.981 Y118.416 E19.86742
G1 X96.072 Y117.943 E19.88744
G1 X96.099 Y117.463 E19.90743
G1 X96.062 Y116.984 E19.92741
G1 X95.962 Y116.513 E19.94742
G1 X95.8 Y116.061 E19.96739
G1 X95.57 Y115.618 E19.98814
G1 X95.017 Y114.922 E20.0251
G1 X94.606 Y114.58 E20.04733
G1 X94.197 Y114.325 E20.06736
G1 X93.758 Y114.127 E20.08739
G1 X93.297 Y113.991 E20.10737
G1 X92.823 Y113.915 E20.12733
G1 X92.342 Y113.905 E20.14733
G1 X91.865 Y113.957 E20.16728
G1 X91.398 Y114.073 E20.18728
G1 X90.952 Y114.251 E20.20725
G1 X90.532 Y114.485 E20.22724
G1 X90.148 Y114.776 E20.24727
G1 X89.806 Y115.113 E20.26723
G1 X89.512 Y115.493 E20.28721
G1 X89.27 Y115.91 E20.30725
G1 X89.088 Y116.355 E20.32724
G1 X88.965 Y116.819 E20.3472
G1 X88.907 Y117.297 E20.36721
G1 X88.911 Y117.776 E20.38713
G1 X88.98 Y118.254 E20.40721
G1 X89.112 Y118.717 E20.42722
G1 X89.304 Y119.157 E20.44718
G1 X89.554 Y119.567 E20.46715
G1 X89.855 Y119.942 E20.48714
G1 X90.204 Y120.272 E20.50711
G1 X90.595 Y120.554 E20.52715
G1 X91.019 Y120.781 E20.54715
G1 X91.469 Y120.948 E20.5671
G1 X91.938 Y121.055 E20.5871
G1 X92.417 Y121.098 E20.6071
G1 X92.897 Y121.077 E20.62707
G1 X93.37 Y120.992 E20.64705
G0 F2100 X93.273 Y120.603
;TYPE:WALL-OUTER
G1 F1200 X93.68 Y120.473 E20.66482
G1 X94.066 Y120.289 E20.68259
G1 X94.425 Y120.055 E20.70041
G1 X94.752 Y119.772 E20.71839
G1 X95.251 Y119.136 E20.752
G1 X95.457 Y118.718 E20.77137
G1 X95.593 Y118.314 E20.7891
G1 X95.674 Y117.894 E20.80688
G1 X95.698 Y117.467 E20.82466
G1 X95.665 Y117.041 E20.84242
G1 X95.576 Y116.623 E20.86019
G1 X95.432 Y116.221 E20.87794
G1 X95.233 Y115.836 E20.89596
G1 X94.73 Y115.203 E20.92958
G1 X94.371 Y114.905 E20.94897
G1 X94.008 Y114.679 E20.96675
G1 X93.618 Y114.503 E20.98454
G1 X93.208 Y114.382 E21.00231
G1 X92.787 Y114.314 E21.02004
G1 X92.36 Y114.305 E21.0378
G1 X91.936 Y114.352 E21.05554
G1 X91.521 Y114.455 E21.07331
G1 X91.124 Y114.613 E21.09108
G1 X90.751 Y114.821 E21.10883
G1 X90.41 Y115.079 E21.12661
G1 X90.106 Y115.379 E21.14437
G1 X89.845 Y115.717 E21.16212
G1 X89.63 Y116.087 E21.17991
G1 X89.468 Y116.482 E21.19766
G1 X89.359 Y116.895 E21.21542
G1 X89.307 Y117.32 E21.23322
G1 X89.311 Y117.746 E21.25093
G1 X89.372 Y118.17 E21.26874
G1 X89.489 Y118.581 E21.28651
G1 X89.66 Y118.972 E21.30425
G1 X89.882 Y119.337 E21.32201
G1 X90.15 Y119.67 E21.33979
G1 X90.46 Y119.963 E21.35752
G1 X90.807 Y120.214 E21.37532
G1 X91.184 Y120.415 E21.39309
G1 X91.584 Y120.564 E21.41083
G1 X92.001 Y120.659 E21.42861
G1 X92.426 Y120.697 E21.44635
G1 X92.853 Y120.679 E21.46412
G1 X93.273 Y120.603 E21.48187
G0 F2100 X93.463 Y120.543
G0 X93.595 Y120.962
G1 F2700 E16.48187
G0 F2100 X91.845 Y121.64
G0 X92.137 Y119.804
G0 X91.845 Y156.165
G0 X91.845 Y154.29
G0 X67.543 Y154.5
;TYPE:WALL-INNER
G1 F2700 E21.48187
G1 F1200 X66.805 Y154.417 E21.51274
G1 X66.534 Y154.339 E21.52447
G1 X65.885 Y154.025 E21.55444
G1 X65.65 Y153.857 E21.56645
G1 X65.162 Y153.369 E21.59515
G1 X64.802 Y152.796 E21.62328
G1 X64.57 Y152.136 E21.65236
G1 X64.523 Y151.852 E21.66433
G1 X64.5 Y151.352 E21.68514
G1 X64.5 Y83.545 E24.50423
G1 X64.584 Y82.802 E24.53532
G1 X64.661 Y82.534 E24.54691
G1 X64.975 Y81.885 E24.57688
G1 X65.143 Y81.65 E24.58889
G1 X65.631 Y81.162 E24.61759
G1 X66.201 Y80.804 E24.64557
G1 X66.841 Y80.58 E24.67376
G1 X67.563 Y80.5 E24.70396
G1 X167.457 Y80.5 E28.85707
G1 X168.195 Y80.583 E28.88795
G1 X168.466 Y80.661 E28.89967
G1 X169.115 Y80.975 E28.92965
G1 X169.35 Y81.143 E28.94166
G1 X169.838 Y81.631 E28.97035
G1 X170.196 Y82.201 E28.99833
G1 X170.42 Y82.841 E29.02653
G1 X170.5 Y83.563 E29.05673
G1 X170.5 Y151.448 E31.87906
G1 X170.416 Y152.197 E31.91039
G1 X170.339 Y152.465 E31.92198
G1 X170.025 Y153.115 E31.952
G1 X169.857 Y153.35 E31.96401
G1 X169.37 Y153.837 E31.99264
G1 X168.799 Y154.196 E32.02068
G1 X168.159 Y154.42 E32.04887
G1 X167.437 Y154.5 E32.07907
G1 X67.543 Y154.5 E36.23218
G0 F2100 X67.525 Y154.9
G1 F1200 X66.726 Y154.81 E36.26561
G1 X66.39 Y154.713 E36.28015
G1 X65.68 Y154.37 E36.31293
G1 X65.389 Y154.162 E36.32781
G1 X64.847 Y153.62 E36.35967
G1 X64.441 Y152.974 E36.39139
G1 X64.194 Y152.269 E36.42245
G1 X64.18 Y152.23 E36.42417
G1 X64.124 Y151.895 E36.4383
G1 X64.1 Y151.37 E36.46014
G1 X64.1 Y83.526 E39.28077
G1 X64.191 Y82.723 E39.31437
G1 X64.287 Y82.39 E39.32878
G1 X64.63 Y81.68 E39.36156
G1 X64.838 Y81.389 E39.37643
G1 X65.38 Y80.847 E39.4083
G1 X66.026 Y80.441 E39.44002
G1 X66.752 Y80.187 E39.472
G1 X67.537 Y80.1 E39.50483
G1 X167.475 Y80.1 E43.65977
G1 X168.274 Y80.19 E43.6932
G1 X168.61 Y80.287 E43.70774
G1 X169.32 Y80.63 E43.74052
G1 X169.611 Y80.838 E43.7554
G1 X170.153 Y81.38 E43.78726
G1 X170.559 Y82.026 E43.81898
G1 X170.813 Y82.752 E43.85096
G1 X170.9 Y83.537 E43.8838
G1 X170.9 Y151.475 E46.70833
G1 X170.811 Y152.269 E46.74155
G1 X170.713 Y152.61 E46.7563
G1 X170.37 Y153.32 E46.78908
G1 X170.162 Y153.611 E46.80395
G1 X169.62 Y154.153 E46.83582
G1 X168.974 Y154.559 E46.86754
G1 X168.248 Y154.813 E46.89952
G1 X167.463 Y154.9 E46.93236
G1 X67.525 Y154.9 E51.0873
G0 F2100 X67.507 Y155.3
;TYPE:WALL-OUTER
G1 F1200 X66.646 Y155.203 E51.12332
G1 X66.246 Y155.087 E51.14063
G1 X65.475 Y154.715 E51.17622
G1 X65.128 Y154.467 E51.19396
G1 X64.532 Y153.871 E51.229
G1 X64.078 Y153.149 E51.26446
G1 X63.793 Y152.335 E51.30031
G1 X63.725 Y151.93 E51.31739
G1 X63.7 Y151.388 E51.33995
G1 X63.7 Y83.507 E54.16211
G1 X63.798 Y82.643 E54.19826
G1 X63.913 Y82.246 E54.21544
G1 X64.285 Y81.475 E54.25104
G1 X64.533 Y81.128 E54.26877
G1 X65.129 Y80.532 E54.30381
G1 X65.851 Y80.078 E54.33927
G1 X66.663 Y79.794 E54.37503
G1 X67.511 Y79.7 E54.4105
G1 X167.493 Y79.7 E58.56727
G1 X168.354 Y79.797 E58.6033
G1 X168.754 Y79.913 E58.62061
G1 X169.525 Y80.285 E58.6562
G1 X169.872 Y80.533 E58.67393
G1 X170.468 Y81.129 E58.70898
G1 X170.922 Y81.851 E58.74443
G1 X171.206 Y82.663 E58.7802
G1 X171.3 Y83.511 E58.81567
G1 X171.3 Y151.493 E61.64203
G1 X171.203 Y152.354 E61.67806
G1 X171.087 Y152.754 E61.69537
G1 X170.715 Y153.525 E61.73096
G1 X170.467 Y153.872 E61.74869
G1 X169.871 Y154.468 E61.78374
G1 X169.149 Y154.922 E61.8192
G1 X168.337 Y155.206 E61.85496
