;FLAVOR:Marlin
;TIME:13654
;Filament used: 9.33834m
;Layer height: 0.2
;MINX:61.212
;MINY:77.212
;MINZ:0.25
;MAXX:173.788
;MAXY:157.788
;MAXZ:17.85
;Generated with Cura_SteamEngine 4.8.0
M140 S60
M105
M190 S60
M104 S205
M105
M109 S205
M82 ;absolute extrusion mode
; Script based on an original created by tjjfvi (https://github.com/tjjfvi)
; An up-to-date version of the tjjfvi's original script can be found
; here:  https://csi.t6.fyi/
; Note - This script will only work in Cura V4.2 and above!
; --- Global Settings
; layer_height = 0.2
; smooth_spiralized_contours = True
; magic_mesh_surface_mode = normal
; machine_extruder_count = 1
; --- Single Extruder Settings
; speed_z_hop = 10
; retraction_amount = 5
; retraction_hop = 0.25
; retraction_hop_enabled = False
; retraction_enable = True
; retraction_speed = 45
; retraction_retract_speed = 45
; retraction_prime_speed = 45
; speed_travel = 70

G28 ;home
G92 E0 ;Reset Extruder
G1 Z4.0 F3000 ;Move Z Axis up
G92 E0 ;Reset Extruder
G1 X1.1 Y20 Z0.28 F5000.0 ;Move to start position
G1 X1.1 Y80.0 Z0.28 F1500.0 E10 ;Draw the first line
G1 X1.4 Y80.0 Z0.28 F5000.0 ;Move to side a little
G1 X1.4 Y20 Z0.28 F1500.0 E20 ;Draw the second line
G92 E0 ;Reset Extruder
G1 Z2.0 F3000 ;Move Z Axis up
G92 E0
G92 E0
G1 F2700 E-5
;LAYER_COUNT:89
;LAYER:0
M107
G0 F2100 X63.343 Y78.804 Z0.25
;TYPE:SKIRT
G1 F2700 E0
G1 F1500 X63.822 Y78.42 E0.02552
G1 X64.498 Y77.994 E0.05874
G1 X65.056 Y77.724 E0.08452
G1 X65.801 Y77.464 E0.11732
G1 X66.338 Y77.336 E0.14027
G1 X66.839 Y77.271 E0.16128
G1 X67.477 Y77.221 E0.18788
G1 X68.176 Y77.212 E0.21695
G1 X166.84 Y77.213 E4.31892
G1 X167.538 Y77.223 E4.34794
G1 X168.068 Y77.261 E4.37003
G1 X168.583 Y77.324 E4.3916
G1 X169.2 Y77.464 E4.41791
G1 X169.935 Y77.721 E4.45028
G1 X170.488 Y77.986 E4.47577
G1 X171.17 Y78.415 E4.50927
G1 X171.576 Y78.728 E4.53058
G1 X172.194 Y79.34 E4.56674
G1 X172.581 Y79.822 E4.59244
G1 X173.008 Y80.5 E4.62576
G1 X173.275 Y81.053 E4.65129
G1 X173.533 Y81.788 E4.68367
G1 X173.673 Y82.396 E4.70961
G1 X173.765 Y83.214 E4.74383
G1 X173.779 Y83.471 E4.75454
G1 X173.788 Y84.143 E4.78248
G1 X173.787 Y150.815 E7.55438
G1 X173.777 Y151.54 E7.58452
G1 X173.734 Y152.111 E7.60833
G1 X173.677 Y152.58 E7.62797
G1 X173.536 Y153.2 E7.6544
G1 X173.281 Y153.929 E7.68651
G1 X173.072 Y154.386 E7.70741
G1 X172.807 Y154.828 E7.72883
G1 X172.596 Y155.154 E7.74498
G1 X172.261 Y155.585 E7.76767
G1 X171.663 Y156.191 E7.80307
G1 X171.179 Y156.58 E7.82888
G1 X170.504 Y157.005 E7.86205
G1 X169.944 Y157.276 E7.88791
G1 X169.199 Y157.536 E7.92072
G1 X168.662 Y157.664 E7.94367
G1 X168.164 Y157.729 E7.96455
G1 X167.527 Y157.779 E7.99111
G1 X166.824 Y157.788 E8.02034
G1 X68.16 Y157.787 E12.12232
G1 X67.462 Y157.777 E12.15134
G1 X66.932 Y157.739 E12.17343
G1 X66.417 Y157.676 E12.195
G1 X65.799 Y157.536 E12.22134
G1 X65.06 Y157.277 E12.2539
G1 X64.511 Y157.013 E12.27923
G1 X63.831 Y156.586 E12.31261
G1 X63.35 Y156.202 E12.3382
G1 X62.807 Y155.661 E12.37007
G1 X62.42 Y155.178 E12.3958
G1 X61.994 Y154.503 E12.42898
G1 X61.721 Y153.937 E12.45511
G1 X61.462 Y153.189 E12.48802
G1 X61.336 Y152.663 E12.51051
G1 X61.271 Y152.162 E12.53151
G1 X61.221 Y151.522 E12.5582
G1 X61.212 Y150.788 E12.58872
G1 X61.213 Y84.132 E15.35995
G1 X61.223 Y83.452 E15.38823
G1 X61.267 Y82.878 E15.41216
G1 X61.323 Y82.42 E15.43134
G1 X61.468 Y81.785 E15.45842
G1 X61.726 Y81.055 E15.49061
G1 X61.99 Y80.506 E15.51594
G1 X62.413 Y79.833 E15.54899
G1 X62.791 Y79.357 E15.57426
G1 X63.343 Y78.804 E15.60674
G1 F2700 E10.60674
;MESH:Enclosure_Top.stl
G0 F2100 X65.077 Y80.642
G0 X65.773 Y81.337
G0 X65.015 Y82.821
G0 X64.789 Y83.664
G0 X64.789 Y84.542
G0 X65.016 Y85.384
G0 X65.46 Y86.143
G0 X66.068 Y86.75
G0 X66.83 Y87.188
G0 X69.638 Y87.795
;TYPE:WALL-INNER
G1 F2700 E15.60674
G1 F1200 X70.108 Y87.562 E15.62855
G1 X70.571 Y87.251 E15.65174
G1 X71.256 Y86.564 E15.69207
G1 X71.571 Y86.094 E15.7156
G1 X71.801 Y85.621 E15.73746
G1 X71.979 Y85.096 E15.76051
G1 X72.105 Y84.132 E15.80093
G1 X72.067 Y83.578 E15.82402
G1 X71.966 Y83.065 E15.84576
G1 X71.797 Y82.568 E15.86758
G1 X71.566 Y82.098 E15.88935
G1 X71.347 Y81.772 E15.90568
G1 X71.257 Y81.637 E15.91243
G1 X71.033 Y81.412 E15.92563
G1 X71.257 Y81.412 E15.92746
G1 X71.42 Y81.412 E15.93294
G1 X163.589 Y81.412 E19.76488
G1 X163.723 Y81.412 E19.77045
G1 X163.945 Y81.413 E19.77968
G1 X163.741 Y81.647 E19.78547
G1 X163.723 Y81.667
G1 X163.649 Y81.778 E19.79013
G1 X163.433 Y82.103 E19.80635
G1 X163.202 Y82.572 E19.82809
G1 X163.033 Y83.07 E19.84995
G1 X163.029 Y83.094 E19.85097
G1 X162.931 Y83.582 E19.87166
G1 X162.898 Y84.104 E19.8934
G1 X162.933 Y84.626 E19.91516
G1 X163.035 Y85.14 E19.93694
G1 X163.205 Y85.637 E19.95878
G1 X163.437 Y86.107 E19.98057
G1 X163.728 Y86.539 E20.00223
G1 X164.074 Y86.934 E20.02406
G1 X164.469 Y87.278 E20.04583
G1 X164.904 Y87.568 E20.06757
G1 X165.375 Y87.801 E20.08942
G1 X165.872 Y87.967 E20.1112
G1 X165.896 Y87.971 E20.11221
G1 X166.384 Y88.069 E20.13291
G1 X166.907 Y88.102 E20.15469
G1 X167.431 Y88.066 E20.17653
G1 X167.942 Y87.964 E20.1982
G1 X168.438 Y87.795 E20.21998
G1 X168.908 Y87.562 E20.24179
G1 X169.23 Y87.345 E20.25793
G1 X169.371 Y87.251 E20.26498
G1 X169.588 Y87.033 E20.27777
G1 X169.588 Y87.251 E20.27946
G1 X169.588 Y87.421 E20.28511
G1 X169.588 Y147.579 E22.78619
G1 X169.588 Y147.748 E22.79322
G1 X169.587 Y147.966 E22.80228
G1 X169.37 Y147.748 E22.80771
G1 X169.23 Y147.655 E22.8133
G1 X168.901 Y147.435 E22.82975
G1 X168.432 Y147.203 E22.85151
G1 X167.934 Y147.034 E22.87337
G1 X167.42 Y146.933 E22.89515
G1 X167.395 Y146.932 E22.89619
G1 X166.898 Y146.898 E22.9169
G1 X166.376 Y146.933 E22.93865
G1 X165.862 Y147.034 E22.96043
G1 X165.365 Y147.204 E22.98227
G1 X164.896 Y147.435 E23.004
G1 X164.462 Y147.726 E23.02573
G1 X164.067 Y148.073 E23.04759
G1 X163.741 Y148.447 E23.06821
G1 X163.723 Y148.467 E23.06933
G1 X163.433 Y148.903 E23.0911
G1 X163.202 Y149.372 E23.11284
G1 X163.033 Y149.87 E23.1347
G1 X163.029 Y149.894 E23.13571
G1 X162.931 Y150.382 E23.15641
G1 X162.898 Y150.904 E23.17815
G1 X162.933 Y151.426 E23.1999
G1 X163.035 Y151.94 E23.22169
G1 X163.205 Y152.437 E23.24353
G1 X163.437 Y152.907 E23.26532
G1 X163.65 Y153.223 E23.28116
G1 X163.728 Y153.339 E23.28697
G1 X163.946 Y153.588 E23.30073
G1 X163.728 Y153.588 E23.30262
G1 X163.588 Y153.588 E23.30748
G1 X71.419 Y153.588 E27.13942
G1 X71.256 Y153.588 E27.1462
G1 X71.034 Y153.587 E27.15543
G1 X71.256 Y153.364 E27.16108
G1 X71.346 Y153.229 E27.16652
G1 X71.571 Y152.894 E27.18329
G1 X71.801 Y152.421 E27.20516
G1 X71.979 Y151.896 E27.22821
G1 X72.105 Y150.932 E27.26863
G1 X72.067 Y150.378 E27.29171
G1 X71.966 Y149.865 E27.31345
G1 X71.797 Y149.368 E27.33528
G1 X71.566 Y148.898 E27.35705
G1 X71.257 Y148.437 E27.38012
G1 X70.57 Y147.748 E27.42057
G1 X70.101 Y147.435 E27.44402
G1 X69.632 Y147.203 E27.46577
G1 X69.134 Y147.034 E27.48763
G1 X68.62 Y146.933 E27.50941
G1 X68.595 Y146.932 E27.51045
G1 X68.098 Y146.898 E27.53116
G1 X67.576 Y146.933 E27.55291
G1 X67.062 Y147.034 E27.57469
G1 X66.565 Y147.204 E27.59653
G1 X66.096 Y147.435 E27.61827
G1 X65.777 Y147.649 E27.63424
G1 X65.662 Y147.726 E27.63999
G1 X65.412 Y147.946 E27.65384
G1 X65.412 Y147.726 E27.65576
G1 X65.412 Y147.587 E27.66059
G1 X65.412 Y87.41 E30.16246
G1 X65.412 Y87.278 E30.16795
G1 X65.413 Y87.055 E30.17722
G1 X65.669 Y87.278 E30.18409
G1 X65.779 Y87.351 E30.18872
G1 X66.104 Y87.568 E30.20497
G1 X66.575 Y87.801 E30.22682
G1 X67.072 Y87.967 E30.2486
G1 X67.096 Y87.971 E30.24962
G1 X67.584 Y88.069 E30.27031
G1 X68.107 Y88.102 E30.2921
G1 X68.631 Y88.066 E30.31393
G1 X69.142 Y87.964 E30.3356
G1 X69.638 Y87.795 E30.35738
G0 F2100 X69.484 Y87.425
G1 F1200 X69.907 Y87.215 E30.37702
G1 X70.315 Y86.941 E30.39745
G1 X70.945 Y86.309 E30.43455
G1 X71.223 Y85.894 E30.45532
G1 X71.43 Y85.469 E30.47497
G1 X71.587 Y85.005 E30.49534
G1 X71.703 Y84.119 E30.53249
G1 X71.67 Y83.63 E30.55286
G1 X71.579 Y83.168 E30.57244
G1 X71.427 Y82.721 E30.59207
G1 X71.219 Y82.299 E30.61163
G1 X70.946 Y81.892 E30.632
G1 X70.444 Y81.388 E30.66158
G1 X70.315 Y81.259 E30.66916
G1 X69.945 Y81.012 E30.68766
G1 X70.315 Y81.012 E30.69185
G1 X70.498 Y81.012 E30.69812
G1 X164.485 Y81.012 E34.60564
G1 X164.706 Y81.012 E34.61483
G1 X165.051 Y81.013 E34.62918
G1 X164.706 Y81.244 E34.63571
G1 X164.54 Y81.39 E34.64311
G1 X164.351 Y81.556 E34.65357
G1 X164.041 Y81.91 E34.67313
G1 X163.78 Y82.303 E34.69274
G1 X163.572 Y82.725 E34.7123
G1 X163.42 Y83.173 E34.73197
G1 X163.329 Y83.634 E34.75151
G1 X163.299 Y84.104 E34.77109
G1 X163.33 Y84.574 E34.79067
G1 X163.422 Y85.036 E34.81026
G1 X163.575 Y85.483 E34.8299
G1 X163.784 Y85.906 E34.84951
G1 X164.046 Y86.295 E34.86901
G1 X164.357 Y86.65 E34.88864
G1 X164.712 Y86.96 E34.90823
G1 X165.104 Y87.221 E34.92781
G1 X165.528 Y87.43 E34.94746
G1 X165.975 Y87.58 E34.96706
G1 X166.436 Y87.671 E34.9866
G1 X166.906 Y87.701 E35.00618
G1 X167.378 Y87.669 E35.02585
G1 X167.838 Y87.577 E35.04535
G1 X168.284 Y87.425 E35.06494
G1 X168.707 Y87.215 E35.08458
G1 X169.115 Y86.941 E35.10501
G1 X169.613 Y86.442 E35.13432
G1 X169.745 Y86.309 E35.14211
G1 X169.988 Y85.946 E35.16027
G1 X169.988 Y86.309 E35.1643
G1 X169.988 Y86.497 E35.17071
G1 X169.988 Y148.503 E37.74862
G1 X169.988 Y148.692 E37.75648
G1 X169.987 Y149.051 E37.7714
G1 X169.746 Y148.692 E37.7784
G1 X169.613 Y148.559 E37.7848
G1 X169.115 Y148.059 E37.81414
G1 X168.7 Y147.782 E37.83488
G1 X168.278 Y147.573 E37.85446
G1 X167.831 Y147.421 E37.87409
G1 X167.368 Y147.33 E37.89371
G1 X166.898 Y147.299 E37.91329
G1 X166.428 Y147.33 E37.93287
G1 X165.966 Y147.421 E37.95245
G1 X165.519 Y147.574 E37.97209
G1 X165.097 Y147.782 E37.99165
G1 X164.706 Y148.044 E38.01122
G1 X164.351 Y148.356 E38.03087
G1 X164.041 Y148.71 E38.05043
G1 X163.78 Y149.103 E38.07005
G1 X163.572 Y149.525 E38.08961
G1 X163.42 Y149.973 E38.10928
G1 X163.329 Y150.434 E38.12881
G1 X163.299 Y150.904 E38.14839
G1 X163.33 Y151.374 E38.16798
G1 X163.422 Y151.836 E38.18756
G1 X163.575 Y152.283 E38.2072
G1 X163.784 Y152.706 E38.22682
G1 X164.046 Y153.095 E38.24632
G1 X164.357 Y153.45 E38.26594
G1 X164.541 Y153.611 E38.27611
G1 X164.712 Y153.76 E38.28553
G1 X165.054 Y153.988 E38.30262
G1 X164.712 Y153.988 E38.30615
G1 X164.485 Y153.988 E38.3137
G1 X70.498 Y153.988 E42.22123
G1 X70.315 Y153.988 E42.22883
G1 X69.949 Y153.987 E42.24405
G1 X70.315 Y153.741 E42.25129
G1 X70.444 Y153.612 E42.25754
G1 X70.945 Y153.109 E42.28706
G1 X71.223 Y152.694 E42.30782
G1 X71.43 Y152.269 E42.32748
G1 X71.587 Y151.805 E42.34784
G1 X71.703 Y150.919 E42.38499
G1 X71.67 Y150.43 E42.40537
G1 X71.579 Y149.968 E42.42495
G1 X71.427 Y149.521 E42.44458
G1 X71.219 Y149.099 E42.46414
G1 X70.946 Y148.692 E42.48451
G1 X70.315 Y148.059 E42.52167
G1 X69.9 Y147.782 E42.54241
G1 X69.478 Y147.573 E42.56199
G1 X69.031 Y147.421 E42.58162
G1 X68.568 Y147.33 E42.60124
G1 X68.098 Y147.299 E42.62082
G1 X67.628 Y147.33 E42.6404
G1 X67.166 Y147.421 E42.65998
G1 X66.719 Y147.574 E42.67962
G1 X66.297 Y147.782 E42.69918
G1 X65.906 Y148.044 E42.71875
G1 X65.551 Y148.356 E42.7384
G1 X65.39 Y148.54 E42.74857
G1 X65.241 Y148.71 E42.75796
G1 X65.012 Y149.055 E42.77518
G1 X65.012 Y148.71 E42.77875
G1 X65.012 Y148.484 E42.78627
G1 X65.012 Y86.514 E45.36268
G1 X65.012 Y86.295 E45.37179
G1 X65.013 Y85.949 E45.38617
G1 X65.246 Y86.295 E45.3928
G1 X65.39 Y86.46 E45.40015
G1 X65.557 Y86.65 E45.41066
G1 X65.912 Y86.96 E45.43026
G1 X66.304 Y87.221 E45.44984
G1 X66.728 Y87.43 E45.46949
G1 X67.175 Y87.58 E45.48909
G1 X67.636 Y87.671 E45.50863
G1 X68.106 Y87.701 E45.52821
G1 X68.578 Y87.669 E45.54788
G1 X69.038 Y87.577 E45.56738
G1 X69.484 Y87.425 E45.58697
G0 F2100 X69.33 Y87.055
;TYPE:WALL-OUTER
G1 F1200 X69.706 Y86.868 E45.60443
G1 X70.059 Y86.631 E45.62211
G1 X70.634 Y86.054 E45.65597
G1 X70.875 Y85.694 E45.67398
G1 X71.059 Y85.317 E45.69142
G1 X71.195 Y84.914 E45.70911
G1 X71.301 Y84.106 E45.74299
G1 X71.273 Y83.682 E45.76065
G1 X71.192 Y83.272 E45.77803
G1 X71.057 Y82.875 E45.79546
G1 X70.872 Y82.5 E45.81285
G1 X70.635 Y82.147 E45.83052
G1 X70.06 Y81.57 E45.86439
G1 X69.699 Y81.329 E45.88244
G1 X69.324 Y81.143 E45.89984
G1 X68.927 Y81.008 E45.91727
G1 X68.516 Y80.927 E45.93469
G1 X68.098 Y80.9 E45.9521
G1 X67.68 Y80.927 E45.96952
G1 X67.27 Y81.008 E45.98689
G1 X66.873 Y81.144 E46.00434
G1 X66.498 Y81.329 E46.02173
G1 X66.15 Y81.562 E46.03914
G1 X65.835 Y81.839 E46.05658
G1 X65.559 Y82.154 E46.07399
G1 X65.327 Y82.503 E46.09141
G1 X65.142 Y82.878 E46.1088
G1 X65.007 Y83.276 E46.12627
G1 X64.927 Y83.685 E46.1436
G1 X64.9 Y84.104 E46.16105
G1 X64.927 Y84.522 E46.17847
G1 X65.009 Y84.932 E46.19585
G1 X65.145 Y85.329 E46.2133
G1 X65.331 Y85.705 E46.23074
G1 X65.564 Y86.051 E46.24808
G1 X65.84 Y86.366 E46.26549
G1 X66.156 Y86.642 E46.28294
G1 X66.504 Y86.874 E46.30032
G1 X66.881 Y87.059 E46.31778
G1 X67.278 Y87.193 E46.3352
G1 X67.687 Y87.273 E46.35253
G1 X68.106 Y87.3 E46.36999
G1 X68.525 Y87.272 E46.38745
G1 X68.934 Y87.19 E46.40479
G1 X69.33 Y87.055 E46.42218
G0 F2100 X69.509 Y86.966
G0 X69.704 Y87.36
G1 F2700 E41.42218
G0 F2100 X69.197 Y88.167
G0 X68.71 Y86.353
G0 X75.095 Y115.457
G0 X74.662 Y113.644
G0 X72.883 Y115.858
G0 X72.447 Y117.037
G0 X72.514 Y118.292
G0 X72.863 Y119.113
G0 X73.36 Y119.729
G0 X76.293 Y121.17
;TYPE:WALL-INNER
G1 F2700 E46.42218
G1 F1200 X77.162 Y120.864 E46.46049
G1 X77.66 Y120.569 E46.48455
G1 X78.087 Y120.222 E46.50743
G1 X78.669 Y119.511 E46.54563
G1 X78.955 Y118.971 E46.57103
G1 X79.207 Y118.076 E46.60969
G1 X79.253 Y117.439 E46.63624
G1 X79.132 Y116.553 E46.67342
G1 X78.944 Y116.009 E46.69735
G1 X78.692 Y115.521 E46.72018
G1 X78.113 Y114.807 E46.7584
G1 X77.643 Y114.415 E46.78384
G1 X76.824 Y113.988 E46.82224
G1 X76.238 Y113.818 E46.84761
G1 X75.314 Y113.751 E46.88613
G1 X74.707 Y113.83 E46.91158
G1 X73.838 Y114.136 E46.94988
G1 X73.34 Y114.431 E46.97394
G1 X72.913 Y114.778 E46.99682
G1 X72.331 Y115.489 E47.03502
G1 X72.235 Y115.671 E47.04357
G1 X72.071 Y115.981 E47.05816
G1 X71.889 Y115.681 E47.06639
G1 X71.726 Y115.414 E47.07939
G1 X72.077 Y115.12 E47.09843
G1 X72.138 Y114.009 E47.14469
G1 X71.927 Y113.156 E47.18122
G1 X71.784 Y113.091 E47.18775
G1 X71.872 Y113.047 E47.18776
G1 X72.056 Y112.956 E47.19514
G1 X72.141 Y111.771 E47.24454
G1 X71.945 Y110.73 E47.28858
G1 X70.949 Y110.52 E47.3309
G1 X70.591 Y110.591 E47.34607
G1 X66.887 Y111.556 E47.50521
G1 X66.243 Y111.998 E47.53768
G1 X66.114 Y112.864 E47.57408
G1 X66.154 Y113.757 E47.61125
G1 X66.46 Y114.244 E47.63516
G1 X66.249 Y114.387 E47.64575
G1 X66.223 Y114.559 E47.65299
G1 X66.121 Y115.216 E47.68063
G1 X66.114 Y115.256 E47.68232
G1 X66.152 Y116.114 E47.71802
G1 X66.517 Y116.758 E47.7488
G1 X66.582 Y116.786 E47.75174
G1 X66.563 Y116.804
G1 X66.174 Y117.185 E47.77438
G1 X66.112 Y118.191 E47.81628
G1 X66.249 Y118.74 E47.83981
G1 X66.203 Y118.777 E47.84226
G1 X66.113 Y119.718 E47.88156
G1 X66.106 Y119.781 E47.8842
G1 X66.309 Y120.704 E47.92349
G1 X66.727 Y120.897 E47.94263
G1 X66.871 Y120.963 E47.94922
G1 X67.031 Y121.037 E47.95655
G1 X67.734 Y121.037 E47.98577
G1 X67.735 Y121.118 E47.98914
G1 X67.031 Y121.118 E47.9951
G1 X66.8 Y121.118 E47.99905
G1 X66.691 Y121.233 E48.0041
G1 X66.174 Y121.778 E48.03533
G1 X66.117 Y122.708 E48.07407
G1 X66.112 Y122.775 E48.07686
G1 X66.355 Y123.65 E48.11461
G1 X67.053 Y123.929 E48.14587
G1 X71.424 Y123.928 E48.32759
G1 X72.075 Y123.288 E48.36555
G1 X72.132 Y122.34 E48.40503
G1 X72.137 Y122.273 E48.40782
G1 X72.008 Y121.803 E48.42809
G1 X72.116 Y121.485 E48.44205
G1 X72.116 Y119.77 E48.51335
G1 X72.116 Y119.479 E48.52545
G1 X72.116 Y119.294 E48.53314
G1 X72.016 Y119.006 E48.54581
G1 X71.955 Y118.83 E48.55356
G1 X71.99 Y118.795 E48.55562
G1 X71.997 Y118.815
G1 X72.058 Y118.991 E48.55647
G1 X72.193 Y119.254 E48.55832
G1 X72.308 Y119.479 E48.56305
G1 X72.491 Y119.705 E48.57218
G1 X72.887 Y120.193 E48.5983
G1 X73.357 Y120.585 E48.62375
G1 X74.176 Y121.012 E48.66215
G1 X74.762 Y121.182 E48.68752
G1 X75.686 Y121.249 E48.72603
G1 X76.293 Y121.17 E48.75148
G0 F2100 X76.2 Y120.779
G1 F1200 X76.992 Y120.5 E48.78639
G1 X77.431 Y120.24 E48.8076
G1 X77.803 Y119.937 E48.82755
G1 X78.334 Y119.288 E48.86241
G1 X78.582 Y118.821 E48.8844
